!!!SOCIAL_FUNCTION: drunken-man dance songs
!!!PDT:	1943
!!!LING_GROUP: Muskogean
!!!LANG: Non-Tone
!!!Specific Region: Oklahoma, California, Mississippi, Louisiana, Texas, Alabama
!!!REG: Southeast
!!!COM: Anon.
!!!OTL: Tick Dance Song (j)
!!!ODT: <1933//
!!!MPN: Lysander Tubby and Gus Willis
!!!MLC: Philadelphia, Mississippi, United States of America
!! Song was recorded in January 1933.
!!!AGN: monody
!!!AMT: irregular
!!!RWG: Transcribed pitches, durations, and meters are only approximate.
**kern
*ICvox
*Imale
*clefF4
*k[b-e-a-]
*M3/4
*MM63
=1-
8B-
8G
8B-
8G
8B-
8r
=2
16B-
8.G
12G
12F
12E-
4F;
*M2/4
=3
8.E-
16G
12G
12F
12E-
=4
4F
8.r
16A-
*M3/4
=5
8.G
16E-
4F
4r
*M2/4
=6
16F
8.F
8F
8E-
=7
4F
8.E-
16G
*M3/4
*MM63
=8
8.G
16E-
4F
4r
*MM104
=9
16F
8.F
8F
8E-
4F
*MM63
=10
8.c
16c
8.B-
16G
8B-
8r
*M2/4
=11
8.B-
16G
12G
12F
12E-
=12
4F
8.E
16G
*M3/4
=13
8.G
16E-
4F
8.r
16A-
=14
8.G
16E-
4F
4r
*M2/4
*MM104
=15
16F
8.F
8F
8E-
=16
4F
8.E-
16A-
*M3/4
*MM63
=17
8.G
16E-
4F
4r
*M2/4
*MM104
=18
16F
8.F
8F
8E-
*M5/8
=19
4F
4F
8F
*M2/4
*M63
=20
8.B-
16G
4B-
=21
!! return to beginning
16B-
8.G
12G
12F
12E-
4F;
*M2/4
=22
8.E-
16G
12G
12F
12E-
=23
4F
8.r
16A-
*M3/4
=24
8.G
16E-
4F
4r
*M2/4
=25
16F
8.F
8F
8E-
=26
4F
8.E-
16G
*M3/4
*MM63
=27
8.G
16E-
4F
4r
*MM104
=28
16F
8.F
8F
8E-
4F
==
*-
!!!CNT: Choctaw
!!!TXO: Choctaw
!!!OCY: United States
!!!OCL: Frances Densmore
!!!YOR: Frances Densmore, "Choctaw Music"
!!!YOR: Bulletin 136, page 142, No. 19
!!!PPR: Smithsonian Institution, Bureau of American Ethnology
!!!PPR: Government Printing Office
!!!PDT: 1943
!!!PPP: Washington, DC, United States of America
!!!YEC: Electronic Copyright 2000 David Huron
!!!YER: August 2000
!!!YEN: United States of America
!!!ENC: David Huron
!!!RDT: August 27, 2000
!!!EEV: Release 1.0
!!!AIN: vox
